X:1086
T:Griffin from the Bridge
T:Coleman's Cross
R:reel
D:Matt Molloy: Stony Steps
Z:id:hn-reel-1086
M:C|
L:1/8
K:G
edBA ~G3E | DEGB AE~E2 | GEDB, DEGA |1 BA (3Bcd efgf :|2 (3Bcd gd e2ef ||
~g3a gfed | (3Bcd ef eB~B2 | ~g3a gfed | (3Bcd gd ~e3f |
~g3b ~f3a | egfd edB2 | dBAF ~G3A | BA (3Bcd efgf ||

